X:1
T:Title
%%score { ( 1 3 ) | ( 2 4 ) }
L:1/8
M:4/4
K:Bb
V:1 treble nm="Grand Piano"
V:3 treble 
V:2 bass 
V:4 bass 
V:1
 z4 z2[Q:1/4=100] [DF]2 | [DF]>[DB] [DB]>c [Fd]>[Ge] [Fd]>c | B>A [EG]>[EA] [DB]3 [FB] | %3
 c>c c>d e>d c>F | [DF]>[FB] [FB]>c d3 [DF] | [DF]>[DB] [DB]>[Ec] [Fd]>[Ec] [DB]>F | %6
 G>^F G>[GB] [Ge]3 [Ge] | [Ge]>[EG] [GB]>[^Fc] [=Fd]>[DF] [DB]>[Fd] | c>G A>F [DB]4 | d4 B4 | %10
 G>B A>^F [B,DG]4 | c4 G4 | A>c B>G F3 F | [DF]>[DB] [DB]>[Ec] [Fd]>[Ec] [DB]>F | %14
 G>^F G>[GB] [Ge]3 [Ge] | [Ge]>[EG] [GB]>[^Fc] [=Fd]>[DF] [DB]>[Fd] |[M:8/4] c>GA>F [DB]4 z8 |] %17
V:2
 z4 z2 [B,,B,]2 | [B,,B,]>[B,,F,] [B,,F,]>[F,E] [B,,B,]>[B,,B,] [B,,B,]>[E,G,E] | %2
 [F,D]>[F,C] [F,,F,]>[F,,F,] [B,,F,]3 [D,B,] | %3
 [F,A,F]>[F,A,F] [F,A,F]>[F,B,F] [F,CF]>[F,B,F] [F,A,E]>[F,CE] | %4
 [B,,B,]>[D,B,] [D,B,]>[K:treble][F,A,F] [B,F]3[K:bass] [B,,B,] | %5
 [B,,B,]>[B,,F,] [B,,F,]>[B,,F,] [B,,F,]>[B,,F,] [B,,F,]>[D,B,] | %6
 [E,B,E]>[E,A,E] [E,B,E]>[E,B,] [E,B,]3 [E,B,] | %7
 [E,B,]>[E,B,] [E,E]>[E,B,] [B,,B,]>[B,,B,] [B,,B,]>[B,,B,] | %8
 [F,A,E]>[F,B,E] [F,CE]>[F,A,E] [B,,B,]4 | [B,,B,]2 [B,,B,]2 [B,,F,]2 [B,,F,]2 | %10
 [G,B,D]>[G,D] [D,D]->[D,CD] G,4 | C,2 C,2 [C,C]2 [C,C]2 | [F,CF]>[F,A,F] G,>B, [F,A,]3 [F,A,E] | %13
 [B,,B,]>[B,,F,] [B,,F,]>[B,,F,] [B,,F,]>[B,,F,] [B,,F,]>[D,B,] | %14
 [E,B,E]>[E,A,E] [E,B,E]>[E,B,] [E,B,]3 [E,B,] | %15
 [E,B,]>[E,B,] [E,E]>[E,B,] [B,,B,]>[B,,B,] [B,,B,]>[B,,B,] | %16
[M:8/4] [F,A,E]>[F,B,E][F,CE]>[F,A,E] [B,,B,]4 z8 |] %17
V:3
 x8 | x8 | x8 | x8 | x8 | x8 | x8 | x8 | x8 | F2 F2 D2 D2 | x8 | [C=E]2 [G,E]2 E2 E2 | z2 =E2 z4 | %13
 x8 | x8 | x8 |[M:8/4] x16 |] %17
V:4
 x8 | x8 | x8 | x8 | x7/2[K:treble] x7/2[K:bass] x | x8 | x8 | x8 | x8 | x8 | z2 ^F,2 z4 | x8 | %12
 z2 C,2 z4 | x8 | x8 | x8 |[M:8/4] x16 |] %17

